!!!ONB: MCCC : IWM0412_02 : Extracted Monophonic Melody
!!!COM: Mozart, Wolfgang Amadeus
!!!OPR: Piano Sonata No.12
!!!OMV: 2
!!!SCT: K.332 ; K⁶.300k ; Op.6 No.3
!!!ODT: 1783///
**kern
*thru
*staff1
*clefG2
*k[b-e-]
*B-:
*met(c)
*M4/4
*MM60
=1
4b-
8.dd
16ee-
8.ee
16ff
8cc
8r
=2
8.ee-
16ff
8.gg
16aa
8.aa
16bb-
8ff
8r
=3
8.gg
32aa-
32gg
16ff
16ee-
16dd
16cc
16ee
8ff
32gg
32ff
16ee-
16dd
16cc
16b-
=4
16ff
8ee-
16cc
16ee-
8dd
16b-
8.dd
32ee-
32dd
16cc
16ff
16ee-
16cc
=5
8.b-
16cc
8.dd-
16ee-
8.ee
16ff
8cc
8r
=6
8.ee-
16ff
8.gg-
16aa-
8.aa
16bb-
8ff
8r
=7
[4ddd-
16ddd-]
32ccc
32bb-
32aa-
32gg
32ff
32ee
8gg
[8ff
16ff]
8ee-
16dd-
=8
8.cc
16dd-
8f
16a-
16g
4f
4r
=9
8b-
8r
8g
8e
16.cc
32a
8cc
4r
=10
8b-
8r
8g
8e
16.cc
32a
8cc
16aa
16gg
16ff
16ee
=11
16ff
16ee
16dd
16cc#
16dd
16cc
16b-
16a
4a
16b-
16b-
16cc
16dd
=12
24cc
24b-
24a
24g
24b-
24dd
8f
8g
16.g
32g#
8a
4r
=13
8b-
8r
8g
8e
16.cc
32a
8cc
4r
=14
8b-
8r
8g
8e
16.cc
32ff
8cc
16aa
16gg
16ff
16ee
=15
16ff
16ee
16dd
16cc#
16dd
16cc
16b-
16a
4a
16b-
16b-
16cc
16dd
=16
24cc
24ff
24a
24g
24b-
24dd
8f
8e
[8aa
32.aa]
64ff
32ff
64ee
64ff
[8bb-
32.bb-]
64gg
32gg
64ff#
64gg
=17
16.ccc
32aa
[8ff
16ff]
16ee-
16dd
16cc#
16dd
32ee
32ff#
32gg
32aa
32bb-
32ccc#
32ddd
32ccc
32bb-
32aa
32gg
32ff
32ee
32dd
=18
8cc
[8ccc
24ccc]
24aa
24ff
32cc
32a
32ff
64r
64f
2g
=19
8f
32r
32ff
16ff
16ccc
16bb-
16aa
16gg
16gg
16ff
32r
32ff
16ff
16ccc
16bb-
16aa
16gg
=20
16gg
16ff
8ff
8ff
8ff
4ff
32ee
32ff
32gg
32ff
32ff
32ee-
32dd
32cc
=21
4b-
8.dd
16ee-
8.ee
16ff
8cc
8r
=22
8.ee-
16ff
8.gg
16aa
8.aa
16bb-
8ff
8r
=23
8.gg
32aa-
32gg
16ff
16ee-
16dd
16cc
16ee
8ff
32gg
32ff
16ee-
16dd
16cc
16b-
=24
32ff
32ee
8ee-
16cc
32ee-
32cc#
8dd
16b-
8.dd
32ee-
32dd
24cc
24ff
24ee
32ee-
32dd
32ee-
32cc
=25
8.b-
16cc
8.dd-
16ee-
8.ee
16ff
8cc
8r
=26
[8e-
56e-]
56f
56e-
56d
56e-
56e
56f
64g-
64g
64a-
64a
64b-
64cc-
64cc
64dd-
64dd
64ee-
64ee
64ff
64gg-
64gg
64aa-
64aa
8.aa
16bb-
8ff
8r
=27
[4ddd-
16ddd-]
32ccc
32bb-
32aa-
32gg
32ff
32ee
8gg
[8ff
16ff]
16ee
24ee-
24dd
24dd-
=28
8.cc
16dd-
8f
16a-
16g
4f
4r
=29
8ee-
8r
8cc
8a
16.ff
32dd
8ff
4r
=30
16ff
16ee-
8r
16dd
32cc
32r
16b-
32a
32r
16.ff
32dd
8ff
16ddd
16ccc
16bb-
16aa
=31
16bb-
16aa
16gg
16ff#
16gg
16ff
16ee-
16dd
4dd
16ee-
16ee-
16ff
16gg
=32
24ff
24ee-
24dd
24cc
24ee-
24gg
8b-
8cc
16.cc
32cc#
8dd
4r
=33
8ee-
8r
8cc
8a
16.ff
32dd
8ff
4r
=34
8ee-
8r
8cc
8a
16.ff
32bb-
8ff
16ddd
16ccc
16bb-
16aa
=35
16bb-
16aa
16gg
16ff#
16gg
16ff
16ee-
16dd
4dd
16ee-
16ee-
16ff
16gg
=36
24ff
24bb-
24dd
24gg
24ee-
24cc
8b-
8a
[8dd
32.dd]
64b-
32b-
64a
64b-
[8ee-
32.ee-]
64cc
32cc
64b
64cc
=37
16.ff
32b-
[8bb-
16bb-]
16aa-
16gg
16ff#
32ff#
32gg
32bb-
32gg
32dd
32ee-
32gg
32ee-
32b
32cc
32ee-
32dd
32ff
32ee-
32dd
32cc
=38
[4ff
16ff]
16gg
16aa
16bb-
2cc
=39
8b-
32r
32b-
16b-
16ff
16ee-
16dd
16cc
16cc
16b-
32r
32b-
16b-
16ff
16ee-
16dd
16cc
=40
16b-
16r
16.ee-
32a
16b-
16r
16.gg
32a
4a
8b-
8r
==
*-
